storage/app/icons/tabler/filled/clipboard-list.svg

<!--
unicode: "100ea"
version: "3.26"
-->
<svg
  xmlns="http://www.w3.org/2000/svg"
  width="24"
  height="24"
  viewBox="0 0 24 24"
  fill="currentColor"
>
  <path d="M17.997 4.17a3 3 0 0 1 2.003 2.83v12a3 3 0 0 1 -3 3h-10a3 3 0 0 1 -3 -3v-12a3 3 0 0 1 2.003 -2.83a4 4 0 0 0 3.997 3.83h4a4 4 0 0 0 3.98 -3.597zm-8.987 10.83h-.01a1 1 0 0 0 -.117 1.993l.127 .007a1 1 0 0 0 0 -2m5.99 0h-2a1 1 0 0 0 0 2h2a1 1 0 0 0 0 -2m-5.99 -4h-.01a1 1 0 0 0 -.117 1.993l.127 .007a1 1 0 0 0 0 -2m5.99 0h-2a1 1 0 0 0 0 2h2a1 1 0 0 0 0 -2m-1 -9a2 2 0 1 1 0 4h-4a2 2 0 1 1 0 -4z" />
</svg>

<svg xmlns="http://www.w3.org/2000/svg" width="24" height="24" fill="currentColor" viewBox="0 0 24 24"><path d="M17.997 4.17A3 3 0 0 1 20 7v12a3 3 0 0 1-3 3H7a3 3 0 0 1-3-3V7a3 3 0 0 1 2.003-2.83A4 4 0 0 0 10 8h4a4 4 0 0 0 3.98-3.597zM9.01 15H9a1 1 0 0 0-.117 1.993L9.01 17a1 1 0 0 0 0-2M15 15h-2a1 1 0 0 0 0 2h2a1 1 0 0 0 0-2m-5.99-4H9a1 1 0 0 0-.117 1.993L9.01 13a1 1 0 0 0 0-2M15 11h-2a1 1 0 0 0 0 2h2a1 1 0 0 0 0-2m-1-9a2 2 0 1 1 0 4h-4a2 2 0 1 1 0-4z"/></svg>
